X: 6
M:4/4
L:1/8
K:D
sFEs|D2 FA dAFD|CDEF G2 sFEs|D2 (3FGA d2 cd|edcB (3ABA (3GFE|
|:de|fdfg fedc|BABc B2 cd|edef edcB|(3AAA ce f2 (3ABc|
dcde fdAF|EDEF G2 FG|AdcB (3ABA (3GFE|D2 F2 D2:||

